src/assets/icons/icon_favorite.svg

<svg width="16" height="16" viewBox="0 0 16 16" fill="none" xmlns="http://www.w3.org/2000/svg">
<path fill-rule="evenodd" clip-rule="evenodd" d="M5.64284 3.67599C5.23103 3.63206 4.81457 3.67388 4.41971 3.7988C4.02485 3.92373 3.66013 4.12906 3.34852 4.40186C3.0369 4.67466 2.78515 5.00903 2.60912 5.38391C2.43308 5.75879 2.33657 6.16606 2.32567 6.58007C2.31476 6.99408 2.3897 7.40587 2.54575 7.78949C2.70181 8.17312 2.93561 8.52028 3.23242 8.80911L3.23453 8.81116L7.99996 13.5309L12.7654 8.81117C12.7757 8.801 12.7864 8.79164 12.7976 8.78308C13.0773 8.50014 13.2981 8.16427 13.4469 7.79495C13.6011 7.41199 13.6747 7.00132 13.663 6.58862C13.6512 6.17593 13.5544 5.7701 13.3786 5.39653C13.2028 5.02297 12.9518 4.68971 12.6413 4.41762C12.3308 4.14552 11.9675 3.94045 11.574 3.81523C11.1806 3.69002 10.7656 3.64735 10.3549 3.68991C9.94428 3.73247 9.54682 3.85933 9.18744 4.06256C8.82806 4.26579 8.5145 4.54101 8.26638 4.871C8.20321 4.955 8.10413 5.0043 7.99903 5.004C7.89393 5.00371 7.79512 4.95387 7.73242 4.86951C7.48537 4.53711 7.17217 4.25947 6.81255 4.05406C6.45292 3.84865 6.05466 3.71992 5.64284 3.67599ZM13.2015 9.31758L8.23452 14.2368C8.10461 14.3655 7.8953 14.3655 7.76539 14.2368L2.76749 9.2869L2.76641 9.28585C2.40415 8.93304 2.11877 8.50911 1.92822 8.0407C1.73749 7.57182 1.6459 7.06853 1.65923 6.56252C1.67256 6.0565 1.79052 5.55873 2.00567 5.10055C2.22083 4.64236 2.52852 4.23369 2.90938 3.90026C3.29024 3.56683 3.73601 3.31587 4.21862 3.16319C4.70123 3.0105 5.21023 2.95939 5.71356 3.01309C6.21689 3.06678 6.70366 3.22411 7.1432 3.47516C7.46223 3.65739 7.75137 3.88613 8.0014 4.15321C8.25183 3.88866 8.54084 3.66233 8.85927 3.48226C9.29851 3.23387 9.7843 3.07881 10.2862 3.02679C10.7881 2.97478 11.2954 3.02693 11.7762 3.17997C12.2571 3.33301 12.7012 3.58365 13.0807 3.91621C13.4602 4.24877 13.767 4.65609 13.9818 5.11267C14.1967 5.56925 14.315 6.06526 14.3294 6.56967C14.3437 7.07407 14.2538 7.57601 14.0652 8.04406C13.8767 8.51212 13.5935 8.93622 13.2335 9.28981C13.2233 9.29986 13.2126 9.30912 13.2015 9.31758Z" fill="#222222"/>
</svg>

<svg xmlns="http://www.w3.org/2000/svg" width="16" height="16" fill="none" viewBox="0 0 16 16">
    <path fill="#222" fill-rule="evenodd" d="M5.643 3.676c-.412-.044-.828-.002-1.223.123-.395.125-.76.33-1.071.603-.312.273-.564.607-.74.982-.176.375-.272.782-.283 1.196-.011.414.064.826.22 1.21.156.383.39.73.686 1.02l.003.001L8 13.531l4.765-4.72c.01-.01.021-.02.033-.028.28-.283.5-.619.649-.988.154-.383.228-.794.216-1.206-.012-.413-.109-.819-.284-1.193-.176-.373-.427-.706-.738-.978-.31-.273-.674-.478-1.067-.603-.393-.125-.808-.168-1.22-.125-.41.042-.807.17-1.167.373-.359.203-.672.478-.92.808-.064.084-.163.133-.268.133-.105 0-.204-.05-.267-.135-.247-.332-.56-.61-.92-.815-.36-.205-.757-.334-1.17-.378zM13.2 9.318l-4.966 4.919c-.13.129-.34.129-.47 0l-4.998-4.95v-.001c-.363-.353-.648-.777-.839-1.245-.19-.47-.282-.973-.269-1.479.014-.506.132-1.003.347-1.461.215-.459.523-.867.903-1.2.381-.334.827-.585 1.31-.738.482-.153.991-.204 1.495-.15.503.054.99.211 1.43.462.318.182.607.411.857.678.25-.264.54-.49.858-.67.44-.25.925-.404 1.427-.456.502-.052 1.01 0 1.49.153.481.153.925.404 1.305.736.38.333.686.74.9 1.197.216.456.334.952.348 1.457.015.504-.075 1.006-.264 1.474-.188.468-.471.892-.832 1.246-.01.01-.02.02-.032.028z" clip-rule="evenodd"/>
</svg>
